img/svg/net/fluid.svg

<?xml version="1.0" encoding="iso-8859-1"?>
<!-- Generator: Adobe Illustrator 21.0.2, SVG Export Plug-In . SVG Version: 6.00 Build 0)  -->
<svg version="1.1" id="&#x56FE;&#x5C42;_1" xmlns="http://www.w3.org/2000/svg" xmlns:xlink="http://www.w3.org/1999/xlink" x="0px"
	 y="0px" viewBox="0 0 16 16" style="enable-background:new 0 0 16 16;" xml:space="preserve">
<path d="M8.049,1c0.412,0.439,0.829,0.874,1.236,1.317c1.424,1.55,2.764,3.16,3.713,5.061c0.829,1.659,0.694,3.275-0.211,4.839
	c-0.907,1.568-2.289,2.501-4.081,2.734c-2.5,0.325-4.647-1.019-5.665-3.061c-0.313-0.629-0.496-1.294-0.571-1.99
	c-0.088-0.825,0.12-1.593,0.458-2.337c0.414-0.911,0.966-1.739,1.545-2.55C4.592,4.847,4.729,4.778,4.933,4.78
	c0.941,0.007,1.882,0.01,2.822,0c0.599-0.007,0.939-0.638,0.621-1.137C8.22,3.398,7.977,3.305,7.696,3.304
	C7.212,3.302,6.728,3.303,6.244,3.303c-0.099,0-0.198,0-0.339,0c0.111-0.234,0.272-0.377,0.408-0.538C6.839,2.143,7.447,1.6,7.994,1
	C8.012,1,8.031,1,8.049,1z M6.083,8.675c0,0.001,0,0.001,0,0.001C5.553,8.677,5.023,8.669,4.494,8.68
	C4.142,8.688,3.913,8.892,3.811,9.248c-0.075,0.26,0.038,0.576,0.279,0.746c0.195,0.138,0.427,0.157,0.655,0.158
	c0.886,0.005,1.771,0.004,2.657,0c0.108,0,0.219-0.017,0.324-0.042c0.459-0.108,0.652-0.393,0.594-0.861
	C8.278,8.92,7.966,8.679,7.562,8.676C7.069,8.672,6.576,8.675,6.083,8.675z M8.927,7.468c0.356,0,0.712,0.005,1.068-0.001
	c0.435-0.007,0.783-0.342,0.79-0.749c0.006-0.382-0.347-0.722-0.774-0.726c-0.703-0.007-1.406-0.006-2.109,0
	c-0.419,0.004-0.769,0.34-0.777,0.727C7.117,7.113,7.478,7.46,7.913,7.467C8.251,7.473,8.589,7.468,8.927,7.468z"/>
</svg>

<svg xmlns="http://www.w3.org/2000/svg" viewBox="0 0 16 16"><title>fluid</title><path d="M8,1,9.28,2.32A22.37,22.37,0,0,1,13,7.38a4.83,4.83,0,0,1-.21,4.84A5.32,5.32,0,0,1,8.71,15,5.48,5.48,0,0,1,3,11.89a5.8,5.8,0,0,1-.57-2,4.43,4.43,0,0,1,.46-2.34A15.46,15.46,0,0,1,4.47,5a.51.51,0,0,1,.46-.23c.94,0,1.88,0,2.82,0a.73.73,0,0,0,.62-1.14A.75.75,0,0,0,7.7,3.3H5.91a2.38,2.38,0,0,1,.41-.54C6.84,2.14,7.45,1.6,8,1Zm-2,7.68h0c-.53,0-1.06,0-1.59,0a.7.7,0,0,0-.68.57.71.71,0,0,0,.28.75,1.1,1.1,0,0,0,.65.16H7.4a1.45,1.45,0,0,0,.32,0,.7.7,0,0,0,.59-.86.72.72,0,0,0-.76-.57ZM8.93,7.47H10a.78.78,0,0,0,.79-.75A.76.76,0,0,0,10,6H7.9a.78.78,0,0,0-.78.73.78.78,0,0,0,.79.75Z"/></svg>
